16x16/actions/run-build-install-root.svg

<svg xmlns="http://www.w3.org/2000/svg" viewBox="0 0 16 16">
  <defs id="defs3051">
    <style type="text/css" id="current-color-scheme">
      .ColorScheme-Text {
        color:#5d656b;
      }
      .ColorScheme-NegativeText {
        color:#da4453;
      }
      </style>
  </defs>
  <path
     style="fill:currentColor;fill-opacity:1;stroke:none" 
     class="ColorScheme-NegativeText"
    d="M 7 2 L 7 3.1015625 A 5 5 0 0 0 5.2460938 3.8320312 L 4.4648438 3.0507812 L 3.0507812 4.4648438 L 3.8320312 5.2460938 A 5 5 0 0 0 3.1054688 7 L 2 7 L 2 9 L 3.1015625 9 A 5 5 0 0 0 3.8320312 10.753906 L 3.0527344 11.535156 L 4.4667969 12.949219 L 5.2460938 12.167969 A 5 5 0 0 0 7 12.894531 L 7 14 L 8 14 L 8 12 A 4 4 0 0 1 5.1308594 10.787109 A 4 4 0 0 1 4 8 A 4 4 0 0 1 5.2128906 5.1308594 A 4 4 0 0 1 8 4 A 4 4 0 0 1 10.869141 5.2128906 A 4 4 0 0 1 12 8 L 14 8 L 14 7 L 12.898438 7 A 5 5 0 0 0 12.167969 5.2460938 L 12.949219 4.4648438 L 11.535156 3.0507812 L 10.753906 3.8320312 A 5 5 0 0 0 9 3.1054688 L 9 2 L 7 2 z M 7 6 L 7 10 L 10 8 L 7 6 z M 11 9 L 11 12.09375 L 9 10.09375 L 9 11.5 L 11.28125 13.8125 L 11.5 14.001953 L 11.71875 13.8125 L 14 11.5 L 14 10.09375 L 12 12.09375 L 12 9 L 11 9 z "
      />
</svg>

<svg xmlns="http://www.w3.org/2000/svg" viewBox="0 0 16 16"><defs id="defs3051"><style type="text/css" id="current-color-scheme"></style></defs><path style="fill:currentColor;fill-opacity:1;stroke:none;color:#da4453" d="M7 2v1.102a5 5 0 0 0-1.754.73l-.781-.781L3.05 4.465l.781.781A5 5 0 0 0 3.105 7H2v2h1.102a5 5 0 0 0 .73 1.754l-.78.781 1.415 1.414.78-.781A5 5 0 0 0 7 12.895V14h1v-2a4 4 0 0 1-2.87-1.213A4 4 0 0 1 4 8a4 4 0 0 1 1.213-2.87A4 4 0 0 1 8 4a4 4 0 0 1 2.87 1.213A4 4 0 0 1 12 8h2V7h-1.102a5 5 0 0 0-.73-1.754l.781-.781-1.414-1.414-.781.781A5 5 0 0 0 9 3.105V2H7zm0 4v4l3-2-3-2zm4 3v3.094l-2-2V11.5l2.281 2.313.219.189.219-.19L14 11.5v-1.406l-2 2V9h-1z"/></svg>
